aloe_vera/img/cream.svg

<svg width="44" height="54" viewBox="0 0 44 54" fill="none" xmlns="http://www.w3.org/2000/svg">
<path d="M26.8125 43.875C29.0907 43.875 30.9375 43.1195 30.9375 42.1875C30.9375 41.2555 29.0907 40.5 26.8125 40.5C24.5343 40.5 22.6875 41.2555 22.6875 42.1875C22.6875 43.1195 24.5343 43.875 26.8125 43.875Z" fill="#FFBC2E"/>
<path d="M17.875 50.625H35.75C36.1764 50.6243 36.5921 50.4618 36.9402 50.1597C37.2883 49.8575 37.5517 49.4306 37.6943 48.9375H15.9308C16.0734 49.4306 16.3368 49.8575 16.6849 50.1597C17.033 50.4618 17.4487 50.6243 17.875 50.625V50.625Z" fill="#FFBC2E"/>
<path d="M16.5 29.5312C16.5002 29.4943 16.5024 29.4574 16.5065 29.4208C16.4626 28.256 16.782 27.1145 17.3997 26.2285C17.7774 25.6916 18.2343 25.2471 18.7464 24.9184L19.7119 6.75H6.41309L8.20703 40.5H14.4375V36.2812C14.4382 35.4607 14.6337 34.6582 14.9999 33.9718C15.3662 33.2853 15.8875 32.7447 16.5 32.4158V29.5312ZM8.25 14.3438V9.28125C8.25 9.05747 8.32243 8.84286 8.45136 8.68463C8.5803 8.52639 8.75516 8.4375 8.9375 8.4375H17.1875C17.3698 8.4375 17.5447 8.52639 17.6736 8.68463C17.8026 8.84286 17.875 9.05747 17.875 9.28125V14.3438C17.875 14.5675 17.8026 14.7821 17.6736 14.9404C17.5447 15.0986 17.3698 15.1875 17.1875 15.1875H8.9375C8.75516 15.1875 8.5803 15.0986 8.45136 14.9404C8.32243 14.7821 8.25 14.5675 8.25 14.3438ZM15.8125 18.5625H10.3125C10.1302 18.5625 9.9553 18.4736 9.82636 18.3154C9.69743 18.1571 9.625 17.9425 9.625 17.7188C9.625 17.495 9.69743 17.2804 9.82636 17.1221C9.9553 16.9639 10.1302 16.875 10.3125 16.875H15.8125C15.9948 16.875 16.1697 16.9639 16.2986 17.1221C16.4276 17.2804 16.5 17.495 16.5 17.7188C16.5 17.9425 16.4276 18.1571 16.2986 18.3154C16.1697 18.4736 15.9948 18.5625 15.8125 18.5625Z" fill="#FFBC2E"/>
<path d="M15.8125 47.25H37.8125V37.125H15.8125V47.25ZM23.1388 39.6221C24.1313 39.1001 25.436 38.8125 26.8125 38.8125C28.189 38.8125 29.4937 39.1001 30.4862 39.6221C32.0752 40.4578 32.3125 41.5881 32.3125 42.1875C32.3125 42.7869 32.0752 43.9172 30.4862 44.7529C29.4937 45.2749 28.189 45.5625 26.8125 45.5625C25.436 45.5625 24.1313 45.2749 23.1388 44.7529C21.5498 43.9172 21.3125 42.7869 21.3125 42.1875C21.3125 41.5881 21.5498 40.4578 23.1388 39.6221Z" fill="#FFBC2E"/>
<path d="M17.875 33.75C17.4487 33.7507 17.033 33.9132 16.6849 34.2153C16.3368 34.5175 16.0734 34.9444 15.9308 35.4375H37.6943C37.5517 34.9444 37.2883 34.5175 36.9402 34.2153C36.5921 33.9132 36.1764 33.7507 35.75 33.75H17.875Z" fill="#FFBC2E"/>
<path d="M18.4675 27.2927C18.184 27.6882 17.9924 28.17 17.9127 28.6875H35.7176C35.5637 26.6991 34.8568 24.9936 33.6096 23.6088C33.0855 23.0305 32.5009 22.5405 31.8713 22.1518C31.4811 22.7165 31.0163 23.1966 30.4963 23.5722C28.8266 24.8203 26.4599 25.4531 23.4619 25.4531C21.0453 25.4531 19.3183 26.0892 18.4675 27.2927V27.2927Z" fill="#FFBC2E"/>
<path d="M17.875 30.375H35.75V32.0625H17.875V30.375Z" fill="#FFBC2E"/>
<path d="M9.625 10.125H16.5V13.5H9.625V10.125Z" fill="#FFBC2E"/>
<path d="M14.4375 42.1875H8.25V47.25H10.3125V46.4062C10.3131 45.7352 10.5306 45.0918 10.9173 44.6172C11.3039 44.1427 11.8282 43.8758 12.375 43.875H13.75C13.9842 43.8749 14.2168 43.924 14.4375 44.0201V42.1875Z" fill="#FFBC2E"/>
<path d="M12.375 45.5625C12.1927 45.5628 12.018 45.6517 11.8891 45.8099C11.7602 45.9681 11.6877 46.1826 11.6875 46.4062V47.25H14.4375V46.4062C14.4373 46.1826 14.3648 45.9681 14.2359 45.8099C14.107 45.6517 13.9323 45.5628 13.75 45.5625H12.375Z" fill="#FFBC2E"/>
<path d="M19.8912 3.375H6.23383L6.32346 5.0625H19.8016L19.8912 3.375Z" fill="#FFBC2E"/>
<path d="M8.36823 48.9375C8.5108 49.4306 8.7742 49.8575 9.1223 50.1597C9.47039 50.4618 9.88613 50.6243 10.3125 50.625H15.1269C14.8205 50.1261 14.6086 49.5496 14.5067 48.9375H8.36823Z" fill="#FFBC2E"/>
</svg>

<svg width="44" height="54" fill="none" xmlns="http://www.w3.org/2000/svg"><path d="M26.813 43.875c2.278 0 4.125-.755 4.125-1.688 0-.931-1.847-1.687-4.125-1.687-2.279 0-4.125.755-4.125 1.688 0 .931 1.846 1.687 4.125 1.687zm-8.938 6.75H35.75c.426 0 .842-.163 1.19-.465.348-.302.612-.73.754-1.222H15.931c.142.493.406.92.754 1.222a1.82 1.82 0 001.19.465zM16.5 29.531a1 1 0 01.006-.11c-.043-1.165.276-2.306.894-3.192a4.887 4.887 0 011.346-1.31l.966-18.169H6.413L8.207 40.5h6.23v-4.219c.001-.82.197-1.623.563-2.31.366-.686.887-1.226 1.5-1.555V29.53zM8.25 14.344V9.28a.95.95 0 01.201-.596.63.63 0 01.486-.248h8.25a.63.63 0 01.487.248.95.95 0 01.201.596v5.063a.95.95 0 01-.201.596.63.63 0 01-.486.248h-8.25a.63.63 0 01-.487-.248.95.95 0 01-.201-.596zm7.563 4.219h-5.5a.63.63 0 01-.487-.248.95.95 0 01-.201-.596.95.95 0 01.201-.597.63.63 0 01.486-.247h5.5a.63.63 0 01.487.247.95.95 0 01.201.597.95.95 0 01-.201.596.63.63 0 01-.486.247z" fill="#FFBC2E"/><path d="M15.813 47.25h22V37.125h-22V47.25zm7.326-7.628c.992-.522 2.297-.81 3.674-.81 1.376 0 2.68.288 3.673.81 1.59.836 1.826 1.966 1.826 2.566 0 .599-.237 1.73-1.826 2.565-.992.522-2.297.81-3.674.81-1.376 0-2.68-.288-3.673-.81-1.59-.836-1.826-1.966-1.826-2.566 0-.599.237-1.73 1.826-2.565zm-5.264-5.872c-.426 0-.842.163-1.19.465-.348.302-.612.73-.754 1.222h21.763a2.548 2.548 0 00-.754-1.222 1.818 1.818 0 00-1.19-.465H17.875zm.593-6.457a3.246 3.246 0 00-.555 1.395h17.805c-.154-1.989-.861-3.694-2.108-5.08a8.086 8.086 0 00-1.739-1.456 5.836 5.836 0 01-1.375 1.42c-1.67 1.248-4.036 1.881-7.034 1.881-2.417 0-4.144.636-4.994 1.84zm-.593 3.082H35.75v1.688H17.875v-1.688zm-8.25-20.25H16.5V13.5H9.625v-3.375zm4.813 32.063H8.25v5.062h2.063v-.844c0-.67.218-1.314.604-1.789.387-.474.911-.741 1.458-.742h1.375c.234 0 .467.049.688.145v-1.833z" fill="#FFBC2E"/><path d="M12.375 45.563a.631.631 0 00-.486.247.95.95 0 00-.201.596v.844h2.75v-.844a.95.95 0 00-.202-.596.631.631 0 00-.486-.248h-1.375zm7.516-42.188H6.234l.09 1.688h13.478l.09-1.688zM8.368 48.938c.143.493.406.92.754 1.222a1.82 1.82 0 001.19.465h4.815a4.707 4.707 0 01-.62-1.688H8.368z" fill="#FFBC2E"/></svg>
